;FLAVOR:Marlin
;TIME:6420
;Filament used: 4.14398m
;Layer height: 0.2
;MINX:65.697
;MINY:35.04
;MINZ:0.2
;MAXX:179.433
;MAXY:188.194
;MAXZ:13.2
;TARGET_MACHINE.NAME:Creality Ender-3 S1 Pro
;Generated with Cura_SteamEngine 5.6.0
M82 ;absolute extrusion mode
; Ender 3 S1 Pro Start G-code
; M413 S0 ; Disable power loss recovery
G92 E0 ; Reset Extruder

; Prep surfaces before auto home for better accuracy
M140 S60
M104 S200

G28 ; Home all axes
G1 Z10.0 F3000 ; Move Z Axis up little to prevent scratching of Heat Bed
G1 X0 Y0

M190 S60
M109 S200

G1 X0.1 Y20 Z0.3 F5000.0 ; Move to start position
G1 X0.1 Y200.0 Z0.3 F1500.0 E15 ; Draw the first line
G1 X0.4 Y200.0 Z0.3 F5000.0 ; Move to side a little
G1 X0.4 Y20 Z0.3 F1500.0 E30 ; Draw the second line
G92 E0 ; Reset Extruder
G1 Z2.0 F3000 ; Move Z Axis up little to prevent scratching of Heat Bed
G1 X5 Y20 Z0.3 F5000.0 ; Move over to prevent blob squish

G92 E0
G92 E0
G1 F2400 E-0.8
;LAYER_COUNT:66
;LAYER:0
M107
M204 S2000
G0 F7500 X70.174 Y66.982 Z0.2
M204 S500
;TYPE:SKIRT
G1 F2400 E0
G1 F1500 X70.792 Y66.357 E0.02923
G1 X71.458 Y65.744 E0.05934
G1 X73.491 Y63.965 E0.14919
G1 X75.328 Y62.267 E0.23239
G1 X77.143 Y60.488 E0.31692
G1 X78.849 Y58.719 E0.39866
G1 X80.583 Y56.818 E0.48424
G1 X82.224 Y54.914 E0.56784
G1 X83.808 Y52.966 E0.65135
G1 X85.336 Y50.972 E0.73491
G1 X86.821 Y48.92 E0.81915
G1 X88.231 Y46.86 E0.90218
G1 X88.812 Y46.089 E0.93429
G1 X89.252 Y45.588 E0.95647
G1 X89.727 Y45.091 E0.97933
G1 X96.2 Y38.618 E1.2838
G1 X96.698 Y38.135 E1.30688
G1 X97.441 Y37.48 E1.33982
G1 X98.196 Y36.922 E1.37105
G1 X99.058 Y36.396 E1.40463
G1 X99.93 Y35.966 E1.43697
G1 X100.771 Y35.637 E1.46701
G1 X101.775 Y35.347 E1.50177
G1 X102.731 Y35.16 E1.53416
G1 X103.701 Y35.06 E1.5666
G1 X104.674 Y35.046 E1.59896
G1 X105.646 Y35.117 E1.63138
G1 X106.6 Y35.273 E1.66353
G1 X107.337 Y35.454 E1.68877
G1 X108.616 Y35.817 E1.73299
G1 X111.097 Y36.479 E1.8184
G1 X113.578 Y37.066 E1.90319
G1 X116.049 Y37.579 E1.98713
G1 X118.491 Y38.013 E2.06963
G1 X121.03 Y38.392 E2.15501
G1 X123.535 Y38.694 E2.23893
G1 X125.981 Y38.918 E2.32062
G1 X128.512 Y39.077 E2.40497
G1 X131.052 Y39.166 E2.4895
G1 X133.544 Y39.182 E2.57239
G1 X136.101 Y39.127 E2.65745
G1 X138.563 Y39.003 E2.73945
G1 X141.095 Y38.805 E2.82392
G1 X143.607 Y38.535 E2.90795
G1 X146.068 Y38.201 E2.99055
G1 X148.591 Y37.786 E3.07559
G1 X151.044 Y37.313 E3.15868
G1 X153.5 Y36.763 E3.24239
G1 X155.932 Y36.147 E3.32584
G1 X158.401 Y35.45 E3.41117
G1 X159.369 Y35.225 E3.44422
G1 X160.333 Y35.091 E3.47659
G1 X161.306 Y35.04 E3.509
G1 X162.279 Y35.078 E3.54138
G1 X163.244 Y35.201 E3.57374
G1 X164.197 Y35.408 E3.60618
G1 X165.126 Y35.7 E3.63857
G1 X166.025 Y36.072 E3.67093
G1 X166.889 Y36.522 E3.70333
G1 X167.71 Y37.047 E3.73574
G1 X168.47 Y37.633 E3.76766
G1 X168.931 Y38.044 E3.7882
G1 X169.379 Y38.474 E3.80885
G1 X175.867 Y44.964 E4.11408
G1 X176.363 Y45.476 E4.13778
G1 X176.985 Y46.179 E4.16901
G1 X177.583 Y46.991 E4.20255
G1 X178.089 Y47.825 E4.23499
G1 X178.517 Y48.698 E4.26733
G1 X178.867 Y49.607 E4.29973
G1 X179.137 Y50.544 E4.33216
G1 X179.321 Y51.5 E4.36454
G1 X179.42 Y52.468 E4.3969
G1 X179.433 Y53.442 E4.4293
G1 X179.36 Y54.413 E4.46169
G1 X179.202 Y55.373 E4.49405
G1 X178.969 Y56.285 E4.52535
G1 X178.579 Y57.37 E4.5637
G1 X177.808 Y59.203 E4.62984
G1 X176.875 Y61.581 E4.7148
G1 X176.027 Y63.937 E4.79809
G1 X175.233 Y66.358 E4.88283
G1 X174.523 Y68.749 E4.96579
G1 X173.88 Y71.159 E5.04875
G1 X173.291 Y73.656 E5.13408
G1 X172.79 Y76.085 E5.21657
G1 X172.343 Y78.603 E5.30162
G1 X171.98 Y81.05 E5.3839
G1 X171.677 Y83.577 E5.46855
G1 X171.45 Y86.073 E5.55191
G1 X171.295 Y88.566 E5.63499
G1 X171.208 Y91.098 E5.71926
G1 X171.193 Y93.639 E5.80377
G1 X171.249 Y96.122 E5.88638
G1 X171.377 Y98.636 E5.9701
G1 X171.573 Y101.117 E6.05288
G1 X171.851 Y103.708 E6.13955
G1 X172.049 Y105.241 E6.19096
G1 X172.131 Y106.29 E6.22596
G1 X172.146 Y106.947 E6.24781
G1 X172.145 Y116.094 E6.55204
G1 X172.131 Y116.86 E6.57753
G1 X172.046 Y118.026 E6.61641
G1 X171.912 Y119.06 E6.65109
G1 X171.632 Y121.542 E6.73416
G1 X171.415 Y124.066 E6.81842
G1 X171.274 Y126.582 E6.90224
G1 X171.202 Y129.115 E6.98652
G1 X171.202 Y131.627 E7.07007
G1 X171.274 Y134.145 E7.15385
G1 X171.416 Y136.651 E7.23733
G1 X171.627 Y139.152 E7.32081
G1 X171.91 Y141.636 E7.40397
G1 X172.268 Y144.161 E7.48879
G1 X172.687 Y146.609 E7.57139
G1 X173.183 Y149.082 E7.65528
G1 X173.743 Y151.527 E7.73871
G1 X174.381 Y153.978 E7.82295
G1 X175.085 Y156.397 E7.90674
G1 X175.853 Y158.79 E7.99033
G1 X176.689 Y161.157 E8.07382
G1 X177.6 Y163.526 E8.15824
G1 X178.604 Y165.936 E8.24508
G1 X178.934 Y166.851 E8.27743
G1 X179.184 Y167.792 E8.30981
G1 X179.35 Y168.752 E8.34222
G1 X179.429 Y169.724 E8.37465
G1 X179.421 Y170.696 E8.40698
G1 X179.329 Y171.666 E8.43939
G1 X179.151 Y172.624 E8.4718
G1 X178.888 Y173.562 E8.5042
G1 X178.544 Y174.472 E8.53655
G1 X178.121 Y175.349 E8.56894
G1 X177.622 Y176.186 E8.60135
G1 X177.095 Y176.919 E8.63138
G1 X176.44 Y177.681 E8.6648
G1 X176.016 Y178.123 E8.68517
G1 X169.533 Y184.606 E8.99011
G1 X169.015 Y185.108 E9.0141
G1 X168.34 Y185.708 E9.04414
G1 X167.499 Y186.331 E9.07895
G1 X166.698 Y186.819 E9.11015
G1 X165.795 Y187.267 E9.14367
G1 X164.954 Y187.596 E9.17371
G1 X163.985 Y187.879 E9.20728
G1 X162.994 Y188.074 E9.24088
G1 X162.026 Y188.174 E9.27324
G1 X161.051 Y188.189 E9.30568
G1 X160.08 Y188.117 E9.33806
G1 X159.126 Y187.962 E9.37021
G1 X158.384 Y187.78 E9.39562
G1 X157.108 Y187.418 E9.43973
G1 X154.595 Y186.747 E9.52624
G1 X152.134 Y186.166 E9.61035
G1 X149.655 Y185.652 E9.69455
G1 X147.214 Y185.217 E9.77702
G1 X144.696 Y184.843 E9.86169
G1 X142.181 Y184.54 E9.94594
G1 X139.729 Y184.315 E10.02784
G1 X137.198 Y184.156 E10.11219
G1 X134.667 Y184.068 E10.19642
G1 X132.173 Y184.052 E10.27937
G1 X129.611 Y184.108 E10.3646
G1 X127.15 Y184.232 E10.44656
G1 X124.617 Y184.43 E10.53106
G1 X122.101 Y184.7 E10.61523
G1 X119.632 Y185.036 E10.6981
G1 X117.148 Y185.445 E10.78183
G1 X114.663 Y185.925 E10.86601
G1 X112.24 Y186.467 E10.94859
G1 X109.757 Y187.097 E11.0338
G1 X107.322 Y187.785 E11.11796
G1 X106.391 Y188.002 E11.14975
G1 X105.392 Y188.143 E11.18331
G1 X104.418 Y188.194 E11.21575
G1 X103.445 Y188.156 E11.24813
G1 X102.48 Y188.033 E11.28049
G1 X101.527 Y187.826 E11.31292
G1 X100.632 Y187.546 E11.34412
G1 X99.699 Y187.162 E11.37767
G1 X98.837 Y186.713 E11.41
G1 X98.046 Y186.209 E11.44119
G1 X97.252 Y185.599 E11.4745
G1 X96.768 Y185.165 E11.49612
G1 X96.309 Y184.724 E11.51729
G1 X89.88 Y178.293 E11.81974
G1 X89.381 Y177.782 E11.84349
G1 X88.702 Y177.011 E11.87766
G1 X87.421 Y175.414 E11.94576
G1 X85.769 Y173.452 E12.03106
G1 X84.125 Y171.609 E12.11321
G1 X82.383 Y169.763 E12.19763
G1 X80.578 Y167.958 E12.28253
G1 X78.783 Y166.261 E12.36469
G1 X76.865 Y164.546 E12.45026
G1 X74.934 Y162.917 E12.53429
G1 X73.715 Y161.935 E12.58635
G1 X73.022 Y161.336 E12.61682
G1 X72.402 Y160.738 E12.64547
G1 X72.091 Y160.414 E12.66041
G1 X71.565 Y159.826 E12.68665
G1 X71.27 Y159.47 E12.70202
G1 X70.816 Y158.88 E12.72678
G1 X70.575 Y158.543 E12.74056
G1 X70.111 Y157.84 E12.76858
G1 X69.866 Y157.433 E12.78438
G1 X69.468 Y156.709 E12.81186
G1 X69.263 Y156.298 E12.82713
G1 X68.95 Y155.61 E12.85227
G1 X68.777 Y155.194 E12.86726
G1 X68.49 Y154.416 E12.89484
G1 X68.348 Y153.983 E12.91
G1 X68.14 Y153.251 E12.93531
G1 X68.034 Y152.825 E12.94991
G1 X67.864 Y151.999 E12.97796
G1 X67.789 Y151.541 E12.99339
G1 X67.695 Y150.799 E13.01827
G1 X67.665 Y150.469 E13.02929
G1 X67.621 Y149.685 E13.05541
G1 X67.613 Y148.842 E13.08345
G1 X67.639 Y147.993 E13.1117
G1 X67.795 Y145.257 E13.20285
G1 X67.866 Y142.709 E13.28762
G1 X67.866 Y140.195 E13.37124
G1 X67.793 Y137.681 E13.45489
G1 X67.65 Y135.165 E13.53871
G1 X67.437 Y132.641 E13.62296
G1 X67.154 Y130.155 E13.70618
G1 X66.925 Y128.501 E13.76171
G1 X66.845 Y127.747 E13.78693
G1 X66.798 Y126.904 E13.81501
G1 X66.79 Y126.143 E13.84033
G1 X66.8 Y125.642 E13.85699
G1 X66.837 Y124.914 E13.88124
G1 X67.082 Y122.086 E13.97565
G1 X67.222 Y119.618 E14.05787
G1 X67.294 Y117.06 E14.14298
G1 X67.294 Y114.549 E14.2265
G1 X67.222 Y112.031 E14.31028
G1 X67.08 Y109.524 E14.3938
G1 X66.868 Y107.005 E14.47787
G1 X66.582 Y104.483 E14.56229
G1 X66.373 Y102.976 E14.6129
G1 X66.288 Y102.172 E14.63979
G1 X66.243 Y101.359 E14.66687
G1 X66.235 Y100.522 E14.69471
G1 X66.244 Y100.055 E14.71024
G1 X66.27 Y99.517 E14.72816
G1 X66.346 Y98.449 E14.76377
G1 X66.494 Y95.834 E14.85089
G1 X66.567 Y93.295 E14.93537
G1 X66.567 Y90.781 E15.01898
G1 X66.496 Y88.278 E15.10227
G1 X66.354 Y85.782 E15.18542
G1 X66.139 Y83.237 E15.27037
G1 X65.768 Y79.935 E15.38088
G1 X65.703 Y78.893 E15.41561
G1 X65.697 Y78.164 E15.43986
G1 X65.707 Y77.696 E15.45542
G1 X65.758 Y76.827 E15.48438
G1 X65.794 Y76.483 E15.49588
G1 X65.904 Y75.67 E15.52317
G1 X66.023 Y75.021 E15.54511
G1 X66.11 Y74.614 E15.55896
G1 X66.306 Y73.847 E15.58529
G1 X66.451 Y73.362 E15.60212
G1 X66.661 Y72.732 E15.62421
G1 X66.78 Y72.41 E15.63563
G1 X67.087 Y71.662 E15.66252
G1 X67.313 Y71.171 E15.6805
G1 X67.73 Y70.355 E15.71098
G1 X67.955 Y69.958 E15.72616
G1 X68.358 Y69.302 E15.75176
G1 X68.603 Y68.934 E15.76647
G1 X69.063 Y68.296 E15.79263
G1 X69.326 Y67.959 E15.80684
G1 X69.854 Y67.333 E15.83408
G1 X70.174 Y66.982 E15.84988
M204 S2000
G0 F7500 X70.458 Y67.263
M204 S500
G1 F1500 X71.063 Y66.651 E15.8785
G1 X71.721 Y66.045 E15.90826
G1 X73.754 Y64.266 E15.99811
G1 X75.608 Y62.553 E16.08206
G1 X77.423 Y60.774 E16.16659
G1 X79.145 Y58.989 E16.24908
G1 X80.879 Y57.088 E16.33466
G1 X82.527 Y55.175 E16.41865
G1 X84.118 Y53.218 E16.50253
G1 X85.66 Y51.207 E16.58682
G1 X87.145 Y49.155 E16.67106
G1 X88.551 Y47.1 E16.75388
G1 X89.113 Y46.353 E16.78497
G1 X89.553 Y45.852 E16.80715
G1 X90.01 Y45.374 E16.82914
G1 X96.479 Y38.905 E17.13343
G1 X96.963 Y38.435 E17.15587
G1 X97.679 Y37.802 E17.18765
G1 X98.434 Y37.244 E17.21888
G1 X99.235 Y36.755 E17.25009
G1 X100.076 Y36.339 E17.2813
G1 X100.917 Y36.01 E17.31133
G1 X101.852 Y35.739 E17.34371
G1 X102.773 Y35.558 E17.37493
G1 X103.707 Y35.46 E17.40617
G1 X104.645 Y35.445 E17.43737
G1 X105.582 Y35.512 E17.46861
G1 X106.505 Y35.662 E17.49971
G1 X107.228 Y35.839 E17.52447
G1 X108.507 Y36.201 E17.56868
G1 X111.005 Y36.868 E17.65468
G1 X113.497 Y37.458 E17.73985
G1 X115.969 Y37.971 E17.82382
G1 X118.432 Y38.409 E17.90703
G1 X120.971 Y38.788 E17.99241
G1 X123.487 Y39.091 E18.0767
G1 X125.953 Y39.317 E18.15906
G1 X128.498 Y39.477 E18.24388
G1 X131.038 Y39.566 E18.32841
G1 X133.55 Y39.582 E18.41196
G1 X136.11 Y39.527 E18.49712
G1 X138.594 Y39.402 E18.57985
G1 X141.136 Y39.203 E18.66465
G1 X143.65 Y38.933 E18.74875
G1 X146.133 Y38.596 E18.83209
G1 X148.66 Y38.18 E18.91727
G1 X151.12 Y37.705 E19.0006
G1 X153.598 Y37.151 E19.08506
G1 X156.03 Y36.535 E19.1685
G1 X158.51 Y35.835 E19.25421
G1 X159.425 Y35.621 E19.28546
G1 X160.354 Y35.49 E19.31667
G1 X161.291 Y35.44 E19.34788
G1 X162.229 Y35.475 E19.3791
G1 X163.16 Y35.592 E19.4103
G1 X164.078 Y35.79 E19.44154
G1 X164.974 Y36.07 E19.47276
G1 X165.841 Y36.427 E19.50395
G1 X166.674 Y36.859 E19.53516
G1 X167.466 Y37.364 E19.5664
G1 X168.204 Y37.932 E19.59737
G1 X168.654 Y38.333 E19.61742
G1 X169.096 Y38.757 E19.63779
G1 X175.58 Y45.242 E19.9428
G1 X176.063 Y45.741 E19.9659
G1 X176.685 Y46.444 E19.99712
G1 X177.241 Y47.199 E20.02831
G1 X177.73 Y48.002 E20.05958
G1 X178.144 Y48.843 E20.09075
G1 X178.483 Y49.718 E20.12196
G1 X178.744 Y50.62 E20.1532
G1 X178.923 Y51.541 E20.1844
G1 X179.02 Y52.474 E20.2156
G1 X179.034 Y53.413 E20.24683
G1 X178.965 Y54.349 E20.27805
G1 X178.814 Y55.275 E20.30926
G1 X178.592 Y56.15 E20.33928
G1 X178.21 Y57.215 E20.37691
G1 X177.439 Y59.048 E20.44305
G1 X176.503 Y61.435 E20.52833
G1 X175.651 Y63.801 E20.61197
G1 X174.853 Y66.233 E20.6971
G1 X174.14 Y68.635 E20.78044
G1 X173.494 Y71.056 E20.86378
G1 X172.899 Y73.575 E20.94987
G1 X172.398 Y76.004 E21.03236
G1 X171.949 Y78.533 E21.11779
G1 X171.584 Y80.991 E21.20044
G1 X171.28 Y83.529 E21.28545
G1 X171.052 Y86.037 E21.36921
G1 X170.895 Y88.552 E21.45303
G1 X170.808 Y91.084 E21.53729
G1 X170.793 Y93.637 E21.6222
G1 X170.849 Y96.131 E21.70518
G1 X170.978 Y98.668 E21.78967
G1 X171.175 Y101.16 E21.87281
G1 X171.454 Y103.759 E21.95975
G1 X171.65 Y105.272 E22.01049
G1 X171.731 Y106.299 E22.04476
G1 X171.746 Y106.947 E22.06631
G1 X171.745 Y116.087 E22.37031
G1 X171.732 Y116.831 E22.39506
G1 X171.649 Y117.975 E22.43321
G1 X171.516 Y119.009 E22.46789
G1 X171.233 Y121.508 E22.55153
G1 X171.017 Y124.032 E22.63579
G1 X170.874 Y126.571 E22.72037
G1 X170.802 Y129.104 E22.80465
G1 X170.802 Y131.627 E22.88857
G1 X170.874 Y134.156 E22.97272
G1 X171.017 Y136.685 E23.05697
G1 X171.229 Y139.186 E23.14045
G1 X171.514 Y141.692 E23.22434
G1 X171.874 Y144.229 E23.30956
G1 X172.295 Y146.688 E23.39254
G1 X172.793 Y149.171 E23.47677
G1 X173.356 Y151.628 E23.56061
G1 X173.997 Y154.09 E23.64522
G1 X174.704 Y156.519 E23.72936
G1 X175.476 Y158.923 E23.81334
G1 X176.316 Y161.301 E23.89722
G1 X177.231 Y163.68 E23.982
G1 X178.228 Y166.072 E24.06819
G1 X178.548 Y166.954 E24.0994
G1 X178.79 Y167.861 E24.13062
G1 X178.951 Y168.785 E24.16182
G1 X179.029 Y169.721 E24.19306
G1 X179.023 Y170.659 E24.22426
G1 X178.936 Y171.594 E24.25549
G1 X178.766 Y172.517 E24.2867
G1 X178.514 Y173.421 E24.31792
G1 X178.184 Y174.299 E24.34911
G1 X177.777 Y175.145 E24.38034
G1 X177.297 Y175.952 E24.41157
G1 X176.77 Y176.685 E24.4416
G1 X176.151 Y177.404 E24.47315
G1 X175.727 Y177.846 E24.49352
G1 X169.254 Y184.319 E24.79799
G1 X168.749 Y184.809 E24.8214
G1 X168.074 Y185.409 E24.85143
G1 X167.291 Y185.989 E24.88384
G1 X166.49 Y186.477 E24.91504
G1 X165.649 Y186.894 E24.94626
G1 X164.808 Y187.223 E24.9763
G1 X163.873 Y187.495 E25.00868
G1 X162.952 Y187.676 E25.0399
G1 X162.019 Y187.774 E25.07111
G1 X161.08 Y187.79 E25.10234
G1 X160.144 Y187.722 E25.13355
G1 X159.221 Y187.573 E25.16465
G1 X158.493 Y187.395 E25.18958
G1 X157.217 Y187.034 E25.23368
G1 X154.687 Y186.358 E25.32078
G1 X152.215 Y185.774 E25.40527
G1 X149.736 Y185.26 E25.48947
G1 X147.273 Y184.821 E25.57268
G1 X144.755 Y184.447 E25.65735
G1 X142.229 Y184.143 E25.74197
G1 X139.758 Y183.916 E25.8245
G1 X137.212 Y183.756 E25.90935
G1 X134.681 Y183.668 E25.99358
G1 X132.167 Y183.652 E26.0772
G1 X129.602 Y183.708 E26.16253
G1 X127.119 Y183.833 E26.24522
G1 X124.576 Y184.032 E26.33006
G1 X122.058 Y184.302 E26.41429
G1 X119.567 Y184.641 E26.49791
G1 X117.079 Y185.051 E26.58177
G1 X114.587 Y185.533 E26.66619
G1 X112.142 Y186.079 E26.74952
G1 X109.659 Y186.709 E26.83472
G1 X107.231 Y187.395 E26.91864
G1 X106.3 Y187.612 E26.95043
G1 X105.371 Y187.744 E26.98164
G1 X104.433 Y187.794 E27.01288
G1 X103.495 Y187.759 E27.0441
G1 X102.564 Y187.642 E27.07531
G1 X101.646 Y187.444 E27.10655
G1 X100.784 Y187.176 E27.13657
G1 X99.883 Y186.807 E27.16895
G1 X99.051 Y186.375 E27.20013
G1 X98.289 Y185.891 E27.23016
G1 X97.519 Y185.301 E27.26242
G1 X97.045 Y184.876 E27.2836
G1 X96.592 Y184.441 E27.30449
G1 X90.166 Y178.014 E27.60677
G1 X89.681 Y177.517 E27.62987
G1 X89.014 Y176.761 E27.6634
G1 X87.727 Y175.156 E27.73182
G1 X86.075 Y173.194 E27.81713
G1 X84.416 Y171.335 E27.9
G1 X82.666 Y169.48 E27.98482
G1 X80.861 Y167.675 E28.06972
G1 X79.058 Y165.97 E28.15226
G1 X77.132 Y164.248 E28.23819
G1 X75.192 Y162.611 E28.32262
G1 X73.977 Y161.632 E28.37451
G1 X73.284 Y161.033 E28.40498
G1 X72.69 Y160.461 E28.43241
G1 X72.389 Y160.148 E28.44685
G1 X71.873 Y159.57 E28.47262
G1 X71.587 Y159.226 E28.4875
G1 X71.141 Y158.647 E28.51181
G1 X70.909 Y158.323 E28.52506
G1 X70.454 Y157.633 E28.55255
G1 X70.217 Y157.24 E28.56782
G1 X69.819 Y156.516 E28.59529
G1 X69.627 Y156.132 E28.60957
G1 X69.319 Y155.457 E28.63425
G1 X69.152 Y155.055 E28.64873
G1 X68.87 Y154.292 E28.67578
G1 X68.733 Y153.873 E28.69045
G1 X68.528 Y153.154 E28.71531
G1 X68.426 Y152.744 E28.72937
G1 X68.259 Y151.934 E28.75687
G1 X68.186 Y151.49 E28.77184
G1 X68.093 Y150.762 E28.79625
G1 X68.064 Y150.447 E28.80677
G1 X68.021 Y149.681 E28.83229
G1 X68.013 Y148.854 E28.8598
G1 X68.038 Y148.016 E28.88768
G1 X68.195 Y145.268 E28.97923
G1 X68.266 Y142.72 E29.06401
G1 X68.266 Y140.195 E29.14799
G1 X68.193 Y137.669 E29.23204
G1 X68.049 Y135.131 E29.31659
